assets/icons/icon-search/web/icon-search.svg

<?xml version="1.0" encoding="UTF-8" standalone="no"?>
<svg width="48px" height="48px" viewBox="0 0 48 48" version="1.1" xmlns="http://www.w3.org/2000/svg" xmlns:xlink="http://www.w3.org/1999/xlink">
    <!-- Generator: Sketch 45.2 (43514) - http://www.bohemiancoding.com/sketch -->
    <title>icon-search</title>
    <desc>Created with Sketch.</desc>
    <defs></defs>
    <g id="Symbols" stroke="none" stroke-width="1" fill="none" fill-rule="evenodd">
        <g id="icon-search" fill="#2D2D2D" fill-rule="nonzero">
            <path d="M30.7465845,28.3122224 L35.7019099,33.2638871 C36.0993634,33.6610469 36.0993634,34.3049703 35.7019099,34.7021301 C35.3044564,35.09929 34.660057,35.09929 34.2626036,34.7021301 L29.3055488,29.7487374 C27.5851255,31.1470409 25.3905193,31.9852249 23,31.9852249 C17.4771525,31.9852249 13,27.5113799 13,21.9926124 C13,16.473845 17.4771525,12 23,12 C28.5228475,12 33,16.473845 33,21.9926124 C33,24.3900446 32.1550902,26.5902834 30.7465845,28.3122224 Z M23.0354865,30.0221627 C27.4537645,30.0221627 31.0354865,26.4430867 31.0354865,22.0280728 C31.0354865,17.6130588 27.4537645,14.0339828 23.0354865,14.0339828 C18.6172085,14.0339828 15.0354865,17.6130588 15.0354865,22.0280728 C15.0354865,26.4430867 18.6172085,30.0221627 23.0354865,30.0221627 Z"></path>
        </g>
    </g>
</svg>

<svg width="48" height="48" viewBox="0 0 48 48" xmlns="http://www.w3.org/2000/svg"><title>icon-search</title><path d="M30.747 28.312l4.955 4.952a1.016 1.016 0 1 1-1.44 1.438l-4.956-4.953A9.963 9.963 0 0 1 23 31.985c-5.523 0-10-4.474-10-9.992C13 16.473 17.477 12 23 12s10 4.474 10 9.993a9.947 9.947 0 0 1-2.253 6.32zm-7.712 1.71c4.419 0 8-3.579 8-7.994 0-4.415-3.581-7.994-8-7.994-4.418 0-8 3.58-8 7.994 0 4.415 3.582 7.994 8 7.994z" fill="#2D2D2D" fill-rule="nonzero"/></svg>
